X:1
T:Title
%%score [ 1 2 3 4 ]
L:1/8
Q:1/4=120
M:2/4
K:F
V:1 treble nm="S."
V:2 treble nm="A."
V:3 treble-8 nm="T."
V:4 bass nm="B."
V:1
 z4 | z4 | G3"^Kyrie eleison" G | B2 A2 | B2 c2 | d4 |"^Antonio de Cabezón\n(1510-1566)" z4 | %7
w: ||Ky- ri-|e e-|le- i-|son,||
[M:2/4] G3 G | B2 A2 | B2 c2 | d4 | z4 | z4 | z4 | z4 | z4 | d2 g2 | f3 f | (e2 d2- | dc/=B/ c2) | %20
w: Ky- ri-|e e-|le- i-|son,||||||Ky- ri-|e e-|lei *||
 d4 | G2 GG | (B2 A2 | B2 c2) | d4 | G2 GG | (B2 A2 | B2 c2) | d4 | z4 | z4 | z4 | z4 | z4 | %34
w: son.|Chri- ste e-|lei *||son,|Chri- ste e-|lei *||son,||||||
 (d2 g2) | f3 f | (e2 d2- | dc/=B/ c2) | d2 z2 | z4 | z2 (d2 | c)A BG | (cB A2) | G z z2 | z4 | %45
w: Chri *|ste e-|lei *||son.||Ky|* ri- e e-|lei * *|son,||
 (d2 c)A | BG (cB | A2) G z | z (A B)A | G2 (FB) | A2 GB | (AG F2) | G4 |] %53
w: Ky * ri-|e e- lei *|* son,|Ky * ri-|e e *|lei- son, e-|lei * *|son.|
V:2
 z4 | z4 | G3 G | G2 F2 | G2 E2 | D4 | z4 |[M:2/4] G3 G | G2 F2 | G2 E2 | D4 | z4 | z4 | D2 G2 | %14
w: ||Ky- ri-|e e-|le- i-|son,||Ky- ri-|e e-|le- i-|son,|||Ky- ri-|
 F3 F | (E2 D2- | DC/=B,/ C2) | D2 A2 | (G2 F2 | E4) | D4 | G2 GG | (G2 F2 | G2 E2) | D4 | G2 GG | %26
w: e e-|lei *||son, e-|lei *||son.|Chri- ste e-|lei *||son,|Chri- ste e-|
 (G2 F2 | G2 E2) | D4 | z4 | z4 | (D2 G2) | F3 F | (E2 D2- | DC/=B,/ C2) | D2 A2 | (G2 F2 | E4) | %38
w: lei *||son,|||Chri *|ste e-|lei *||son, e-|lei *||
 D2 z2 | z4 | z2 (D2 | E)F GB | (AG F2) | G z z2 | z4 | (D2 E)F | GB (AG | F2) G z | z (F E)F | %49
w: son.||Ky|* ri- e e-|lei * *|son,||Ky * ri-|e e- lei *|* son,|Ky * ri-|
 D2 (DF) | F2 DE | (FD D2) | D4 |] %53
w: e e *|lei- son, e-|lei * *|son.|
V:3
 G3 G | B2 A2 | B2 c2 | d4 | z4 | G3 G | B2 A2 |[M:2/4][K:treble-8] B2 c2 | d4 | z4 | d2 g2 | %11
w: Ky- ri-|e e-|le- i-|son,||Ky- ri-|e e-|le- i-|son,||Ky- ri-|
 f3 f | (e2 d2- | dc/=B/ c2) | d2 (AB) | (c2 A2 | BA G2) | A3 A | c2 d2 | A3 A | (B2 G2 | B2 c2) | %22
w: e e-|lei *||son, e *|lei *||son, e-|le- i-|son, e-|lei *||
 d4 | G2 GG | (B2 A2 | B2 c2) | d4 | z4 | (d2 g2) | f3 f | (e2 d2- | dc/=B/ c2) | d2 (AB) | c2 A2 | %34
w: son.|Chri- ste e-|lei *||son,||Chri- ste|e e-|lei *||son, Chri *|ste e-|
 (BA G2) | (AG) (AB) | c2 d2 | A4 | (d2 c)A | BG (cB | A2) G z | z4 | z2 (d2 | c)A BG | (cB A2) | %45
w: lei * *|son, * e *|le- i-|son.|Ky * ri-|e e- lei *|* son,||Ky|* ri- e e-|lei * *|
 G z z2 | z4 | z2 z B | d2 Bc | B2 A(d | c)A BG | (cB A2) | G4 |] %53
w: son,||e-|lei- son, e-|lei- son, Ky|* ri- e e-|lei * *|son.|
V:4
 G,3 G, | G,2 F,2 | G,2 E,2 | D,4 | z4 | G,3 G, | G,2 F,2 |[M:2/4] G,2 E,2 | D,4 | G,2 C2 | %10
w: Ky- ri-|e e-|le- i-|son,||Ky- ri-|e e-|le- i-|son,|Ky- ri-|
 B,2 G,2 | B,2 A,2 | G,2- G,(F,/E,/) | (F,G, E,2) | D,2 D,2 | (A,2 F,2 | G,F, E,2) | D,4 | z4 | %19
w: e e-|le- i-|son, * e *|lei * *|son, e-|lei *||son.||
 z4 | z4 |"^This edition  Andrew Sims 2018" z4 | z4 | G,2 G,G, | (G,2 F,2 | G,2 E,2) | D,4 | %27
w: ||||Chri- ste e-|lei *||son,|
 (G,2 C2) | B,2 G,2 | B,2 A,2 | G,2- G,(F,/E,/) | (F,G, E,2) | D,2 D,2 | A,2 F,2 | (G,F, E,2) | %35
w: Chri *|ste e-|le- i-|son, * e *|lei * *|son, Chri-|ste e-|lei * *|
 D,4 | z4 | z4 | (D,2 E,)F, | G,B, (A,G, | F,2) G, z | z4 | z2 (D,2 | E,)F, G,B, | (A,G, F,2) | %45
w: son.|||Ky * ri-|e e- lei *|* son,||Ky|* ri- e e-|lei * *|
 G, z z2 | z4 | z2 z G, | D,2 G,F, | G,2 D,(D, | F,)F, G,G, | (F,G, D,2) | G,,4 |] %53
w: son,||e-|lei- son, e-|lei- son, Ky|* ri- e e-|lei * *|son.|

